HTML/img/Component/Maintenance.svg

<?xml version="1.0" encoding="UTF-8" standalone="no"?>
<svg
   xmlns:dc="http://purl.org/dc/elements/1.1/"
   xmlns:cc="http://creativecommons.org/ns#"
   xmlns:rdf="http://www.w3.org/1999/02/22-rdf-syntax-ns#"
   xmlns:svg="http://www.w3.org/2000/svg"
   xmlns="http://www.w3.org/2000/svg"
   xmlns:xlink="http://www.w3.org/1999/xlink"
   xmlns:sodipodi="http://sodipodi.sourceforge.net/DTD/sodipodi-0.dtd"
   xmlns:inkscape="http://www.inkscape.org/namespaces/inkscape"
   viewBox="0 0 348 348"
   fill="none"
   font-family="Arial"
   id="svg2"
   version="1.1"
   inkscape:version="0.91 r13725"
   sodipodi:docname="Maintenance.svg">
  <metadata
     id="metadata86">
    <rdf:RDF>
      <cc:Work
         rdf:about="">
        <dc:format>image/svg+xml</dc:format>
        <dc:type
           rdf:resource="http://purl.org/dc/dcmitype/StillImage" />
      </cc:Work>
    </rdf:RDF>
  </metadata>
  <defs
     id="defs84">
    <linearGradient
       inkscape:collect="always"
       id="linearGradient4318">
      <stop
         style="stop-color:#000000;stop-opacity:1;"
         offset="0"
         id="stop4320" />
      <stop
         style="stop-color:#000000;stop-opacity:0;"
         offset="1"
         id="stop4322" />
    </linearGradient>
    <marker
       inkscape:stockid="Arrow1Lstart"
       orient="auto"
       refY="0.0"
       refX="0.0"
       id="marker4971"
       style="overflow:visible"
       inkscape:isstock="true">
      <path
         id="path4973"
         d="M 0.0,0.0 L 5.0,-5.0 L -12.5,0.0 L 5.0,5.0 L 0.0,0.0 z "
         style="fill-rule:evenodd;stroke:#000000;stroke-width:1pt;stroke-opacity:1;fill:#ffffff;fill-opacity:1"
         transform="scale(0.8) translate(12.5,0)" />
    </marker>
    <marker
       inkscape:stockid="Arrow1Lstart"
       orient="auto"
       refY="0.0"
       refX="0.0"
       id="marker4901"
       style="overflow:visible"
       inkscape:isstock="true">
      <path
         id="path4903"
         d="M 0.0,0.0 L 5.0,-5.0 L -12.5,0.0 L 5.0,5.0 L 0.0,0.0 z "
         style="fill-rule:evenodd;stroke:#000000;stroke-width:1pt;stroke-opacity:1;fill:#ffffff;fill-opacity:1"
         transform="scale(0.8) translate(12.5,0)" />
    </marker>
    <marker
       inkscape:stockid="Arrow1Lstart"
       orient="auto"
       refY="0.0"
       refX="0.0"
       id="marker4837"
       style="overflow:visible"
       inkscape:isstock="true">
      <path
         id="path4839"
         d="M 0.0,0.0 L 5.0,-5.0 L -12.5,0.0 L 5.0,5.0 L 0.0,0.0 z "
         style="fill-rule:evenodd;stroke:#000000;stroke-width:1pt;stroke-opacity:1;fill:#ffffff;fill-opacity:1"
         transform="scale(0.8) translate(12.5,0)" />
    </marker>
    <marker
       inkscape:stockid="Arrow1Lstart"
       orient="auto"
       refY="0.0"
       refX="0.0"
       id="marker4779"
       style="overflow:visible"
       inkscape:isstock="true">
      <path
         id="path4781"
         d="M 0.0,0.0 L 5.0,-5.0 L -12.5,0.0 L 5.0,5.0 L 0.0,0.0 z "
         style="fill-rule:evenodd;stroke:#000000;stroke-width:1pt;stroke-opacity:1;fill:#ffffff;fill-opacity:1"
         transform="scale(0.8) translate(12.5,0)" />
    </marker>
    <marker
       inkscape:stockid="Arrow1Lstart"
       orient="auto"
       refY="0.0"
       refX="0.0"
       id="marker4727"
       style="overflow:visible"
       inkscape:isstock="true">
      <path
         id="path4729"
         d="M 0.0,0.0 L 5.0,-5.0 L -12.5,0.0 L 5.0,5.0 L 0.0,0.0 z "
         style="fill-rule:evenodd;stroke:#000000;stroke-width:1pt;stroke-opacity:1;fill:#ffffff;fill-opacity:1"
         transform="scale(0.8) translate(12.5,0)" />
    </marker>
    <marker
       inkscape:stockid="Arrow1Lstart"
       orient="auto"
       refY="0.0"
       refX="0.0"
       id="marker4681"
       style="overflow:visible"
       inkscape:isstock="true">
      <path
         id="path4683"
         d="M 0.0,0.0 L 5.0,-5.0 L -12.5,0.0 L 5.0,5.0 L 0.0,0.0 z "
         style="fill-rule:evenodd;stroke:#000000;stroke-width:1pt;stroke-opacity:1;fill:#ffffff;fill-opacity:1"
         transform="scale(0.8) translate(12.5,0)" />
    </marker>
    <marker
       inkscape:stockid="Arrow1Lstart"
       orient="auto"
       refY="0.0"
       refX="0.0"
       id="marker4641"
       style="overflow:visible"
       inkscape:isstock="true">
      <path
         id="path4643"
         d="M 0.0,0.0 L 5.0,-5.0 L -12.5,0.0 L 5.0,5.0 L 0.0,0.0 z "
         style="fill-rule:evenodd;stroke:#000000;stroke-width:1pt;stroke-opacity:1;fill:#ffffff;fill-opacity:1"
         transform="scale(0.8) translate(12.5,0)" />
    </marker>
    <marker
       inkscape:stockid="Arrow1Lstart"
       orient="auto"
       refY="0.0"
       refX="0.0"
       id="marker4607"
       style="overflow:visible"
       inkscape:isstock="true">
      <path
         id="path4609"
         d="M 0.0,0.0 L 5.0,-5.0 L -12.5,0.0 L 5.0,5.0 L 0.0,0.0 z "
         style="fill-rule:evenodd;stroke:#000000;stroke-width:1pt;stroke-opacity:1;fill:#ffffff;fill-opacity:1"
         transform="scale(0.8) translate(12.5,0)" />
    </marker>
    <marker
       inkscape:stockid="Arrow1Lstart"
       orient="auto"
       refY="0.0"
       refX="0.0"
       id="marker4561"
       style="overflow:visible"
       inkscape:isstock="true">
      <path
         id="path4563"
         d="M 0.0,0.0 L 5.0,-5.0 L -12.5,0.0 L 5.0,5.0 L 0.0,0.0 z "
         style="fill-rule:evenodd;stroke:#000000;stroke-width:1pt;stroke-opacity:1;fill:#ffffff;fill-opacity:1"
         transform="scale(0.8) translate(12.5,0)" />
    </marker>
    <marker
       inkscape:stockid="Arrow1Lstart"
       orient="auto"
       refY="0.0"
       refX="0.0"
       id="marker4539"
       style="overflow:visible"
       inkscape:isstock="true">
      <path
         id="path4541"
         d="M 0.0,0.0 L 5.0,-5.0 L -12.5,0.0 L 5.0,5.0 L 0.0,0.0 z "
         style="fill-rule:evenodd;stroke:#000000;stroke-width:1pt;stroke-opacity:1;fill:#ffffff;fill-opacity:1"
         transform="scale(0.8) translate(12.5,0)" />
    </marker>
    <marker
       inkscape:stockid="Arrow1Lstart"
       orient="auto"
       refY="0.0"
       refX="0.0"
       id="Arrow1Lstart"
       style="overflow:visible"
       inkscape:isstock="true">
      <path
         id="path4269"
         d="M 0.0,0.0 L 5.0,-5.0 L -12.5,0.0 L 5.0,5.0 L 0.0,0.0 z "
         style="fill-rule:evenodd;stroke:#000000;stroke-width:1pt;stroke-opacity:1;fill:#ffffff;fill-opacity:1"
         transform="scale(0.8) translate(12.5,0)" />
    </marker>
    <linearGradient
       inkscape:collect="always"
       xlink:href="#linearGradient4318"
       id="linearGradient4324"
       x1="24.184692"
       y1="143.31356"
       x2="168.71191"
       y2="143.31356"
       gradientUnits="userSpaceOnUse" />
  </defs>
  <sodipodi:namedview
     pagecolor="#ffffff"
     bordercolor="#666666"
     borderopacity="1"
     objecttolerance="10"
     gridtolerance="10"
     guidetolerance="10"
     inkscape:pageopacity="0"
     inkscape:pageshadow="2"
     inkscape:window-width="1440"
     inkscape:window-height="801"
     id="namedview82"
     showgrid="false"
     inkscape:zoom="0.95906437"
     inkscape:cx="-25.548148"
     inkscape:cy="187.15186"
     inkscape:window-x="14"
     inkscape:window-y="0"
     inkscape:window-maximized="0"
     inkscape:current-layer="svg2" />
  <path
     d="M5 5.8h337v337.6H5z"
     stroke-width="2"
     stroke="#000"
     id="path4"
     style="stroke:#000000;stroke-opacity:1" />
  <path
     d="M282.7 40.6c0-8.4 7-15.2 15.6-15.2 4.1 0 8 1.6 11 4.4a15 15 0 0 1 4.6 10.8c0 8.3-7 15.1-15.6 15.1s-15.6-6.8-15.6-15.1z"
     stroke-width="2"
     stroke="#000"
     id="path6"
     style="stroke:#000000;stroke-opacity:1" />
  <path
     d="m 63.406096,299.65174 0,-22.72497 219.575614,0 0,45.51819 -219.575614,0 0,-22.79322 z"
     id="path4156"
     inkscape:connector-curvature="0"
     style="fill:#000000;stroke:#000000;stroke-opacity:1" />
  <text
     sodipodi:linespacing="125%"
     x="120.24146"
     y="308.31955"
     font-size="40"
     id="text4158"
     style="font-style:normal;font-variant:normal;font-weight:normal;font-stretch:normal;font-size:40px;line-height:125%;font-family:'Keep on Truckin'FW';-inkscape-font-specification:'Keep on Truckin'FW, Normal';text-align:start;writing-mode:lr-tb;text-anchor:start;fill:#000000;stroke:#000000;stroke-opacity:1;">
    <tspan
       x="120.24146"
       y="308.31955"
       font-size="32"
       id="tspan4160"
       style="font-style:normal;font-variant:normal;font-weight:normal;font-stretch:normal;font-size:30px;line-height:125%;font-family:sans-serif;-inkscape-font-specification:sans-serif;text-align:start;writing-mode:lr-tb;text-anchor:start;fill:#ffffff;stroke:none;stroke-opacity:1;fill-opacity:1">&lt;JOB&gt;</tspan>
  </text>
  <path
     style="fill:#ffffff;fill-opacity:1;stroke:#000000;stroke-width:1.05412996;stroke-opacity:1"
     inkscape:connector-curvature="0"
     id="path4162"
     d="m 16.963753,222.57555 0,-39.71312 312.289557,0 0,79.5455 -312.289557,0 0,-39.83238 z" />
  <text
     sodipodi:linespacing="125%"
     style="font-style:normal;font-variant:normal;font-weight:normal;font-stretch:normal;font-size:45.60315323px;line-height:125%;text-align:start;writing-mode:lr-tb;text-anchor:start;fill:#000000;fill-opacity:1;stroke:#000000;stroke-opacity:1;"
     id="text4168"
     font-size="40"
     y="272.73917"
     x="33.28437"
     transform="scale(1.1419538,0.87569216)">
    <tspan
       style="font-style:normal;font-variant:normal;font-weight:normal;font-stretch:normal;font-size:51.30355072px;line-height:125%;font-family:sans-serif;-inkscape-font-specification:sans-serif;text-align:start;writing-mode:lr-tb;text-anchor:start;fill:#000000;fill-opacity:1;stroke:#000000;stroke-opacity:1;"
       id="tspan4170"
       font-size="32"
       y="272.73917"
       x="33.28437">&lt;PLATE&gt;</tspan>
  </text>
  <path
     d="m 18.000405,299.20629 0,-22.51821 41.712034,0 0,45.10406 -41.712034,0 0,-22.58585 z"
     id="path4200"
     inkscape:connector-curvature="0"
     style="fill:#ffffff;fill-opacity:1;stroke:#000000;stroke-width:0.29009882;stroke-opacity:1" />
  <path
     style="fill:#ffffff;fill-opacity:1;stroke:#000000;stroke-width:0.29009882;stroke-opacity:1"
     inkscape:connector-curvature="0"
     id="path4202"
     d="m 288.00041,299.20629 0,-22.51821 41.71203,0 0,45.10406 -41.71203,0 0,-22.58585 z" />
  <text
     sodipodi:linespacing="125%"
     id="text4208"
     y="313.27966"
     x="21.381355"
     style="font-style:normal;font-weight:normal;font-size:40px;line-height:125%;font-family:sans-serif;letter-spacing:0px;word-spacing:0px;fill:#000000;fill-opacity:1;stroke:#000000;stroke-width:1px;stroke-linecap:butt;stroke-linejoin:miter;stroke-opacity:1;"
     xml:space="preserve"><tspan
       y="313.27966"
       x="21.381355"
       id="tspan4210"
       sodipodi:role="line">&lt;</tspan></text>
  <text
     xml:space="preserve"
     style="font-style:normal;font-weight:normal;font-size:40px;line-height:125%;font-family:sans-serif;letter-spacing:0px;word-spacing:0px;fill:#000000;fill-opacity:1;stroke:#000000;stroke-width:1px;stroke-linecap:butt;stroke-linejoin:miter;stroke-opacity:1;"
     x="292.61017"
     y="311.77118"
     id="text4217"
     sodipodi:linespacing="125%"><tspan
       sodipodi:role="line"
       id="tspan4219"
       x="292.61017"
       y="311.77118">&gt;</tspan></text>
  <path
     d="m 15.933781,94.267734 0,-78.221854 166.288539,0 0,156.67861 -166.288539,0 0,-78.456756 z"
     id="path4195"
     inkscape:connector-curvature="0"
     style="fill:#ffffff;fill-opacity:1;stroke:#000000;stroke-width:1.07955217;stroke-opacity:1" />
  <flowRoot
     xml:space="preserve"
     id="flowRoot4227"
     style="font-style:normal;font-weight:normal;font-size:40px;line-height:125%;font-family:sans-serif;letter-spacing:0px;word-spacing:0px;fill:url(#linearGradient4324);fill-opacity:1;stroke:#000000;stroke-width:1px;stroke-linecap:butt;stroke-linejoin:miter;stroke-opacity:1"
     transform="translate(-1.0426829,-52.134144)"><flowRegion
       id="flowRegion4229"
       style="fill-opacity:1;fill:url(#linearGradient4324)"><rect
         id="rect4231"
         width="148.06097"
         height="154.31706"
         x="25.024389"
         y="72.73172"
         style="stroke:#000000;stroke-opacity:1;fill-opacity:1;fill:url(#linearGradient4324)" /></flowRegion><flowPara
       style="font-size:18.75px;stroke:#000000;stroke-opacity:1;fill:#000000;fill-opacity:1"
       id="flowPara4243">&lt;Date&gt;</flowPara><flowPara
       style="font-size:18.75px;stroke:#000000;stroke-opacity:1;fill:#000000;fill-opacity:1"
       id="flowPara4253" /><flowPara
       style="font-size:18.75px;stroke:#000000;stroke-opacity:1;fill:#000000;fill-opacity:1"
       id="flowPara4255" /><flowPara
       style="font-size:18.75px;stroke:#000000;stroke-opacity:1;fill:#000000;fill-opacity:1"
       id="flowPara4257">There are &lt;#&gt; jobs that need attention</flowPara></flowRoot>  <circle
     style="fill:#ffffff;fill-opacity:1;stroke:#000000;stroke-width:1.57803822;stroke-linejoin:miter;stroke-miterlimit:10;stroke-dasharray:none;stroke-opacity:1"
     id="path5217"
     cx="213.32317"
     cy="156.14635"
     r="14.808541" />
  <circle
     r="14.808541"
     cy="116.5244"
     cx="214.36584"
     id="circle5219"
     style="fill:#ffffff;fill-opacity:1;stroke:#000000;stroke-width:1.57803822;stroke-linejoin:miter;stroke-miterlimit:10;stroke-dasharray:none;stroke-opacity:1" />
  <circle
     style="fill:#ffffff;fill-opacity:1;stroke:#000000;stroke-width:1.57803822;stroke-linejoin:miter;stroke-miterlimit:10;stroke-dasharray:none;stroke-opacity:1"
     id="circle5221"
     cx="214.36584"
     cy="75.859764"
     r="14.808541" />
  <circle
     r="14.808541"
     cy="33.109764"
     cx="214.36584"
     id="circle5223"
     style="fill:#ffffff;fill-opacity:1;stroke:#000000;stroke-width:1.57803822;stroke-linejoin:miter;stroke-miterlimit:10;stroke-dasharray:none;stroke-opacity:1" />
  <path
     d="m 261.74296,118.81181 0,-50.895769 66.71894,0 0,101.944379 -66.71894,0 0,-51.04861 z"
     id="path5225"
     inkscape:connector-curvature="0"
     style="fill:#ffffff;fill-opacity:1;stroke:#000000;stroke-width:0.55158681;stroke-opacity:1" />
  <text
     transform="scale(0.87664271,1.1407156)"
     x="313.35254"
     y="113.3971"
     font-size="40"
     id="text5231"
     style="font-style:normal;font-variant:normal;font-weight:normal;font-stretch:normal;font-size:59.40469742px;line-height:125%;text-align:start;writing-mode:lr-tb;text-anchor:start;fill:#000000;fill-opacity:1;stroke:#000000;stroke-opacity:1;"
     sodipodi:linespacing="125%">
    <tspan
       x="313.35254"
       y="113.3971"
       font-size="32"
       id="tspan5233"
       style="font-style:normal;font-variant:normal;font-weight:normal;font-stretch:normal;font-size:24.42458344px;line-height:125%;font-family:sans-serif;-inkscape-font-specification:sans-serif;text-align:start;writing-mode:lr-tb;text-anchor:start;fill:#000000;fill-opacity:1;stroke:#000000;stroke-opacity:1;">FIX!</tspan>
  </text>
</svg>

<svg xmlns="http://www.w3.org/2000/svg" xmlns:xlink="http://www.w3.org/1999/xlink" fill="none" font-family="Arial" viewBox="0 0 348 348">
    <defs>
        <linearGradient id="a">
            <stop offset="0"/>
            <stop offset="1" stop-opacity="0"/>
        </linearGradient>
        <linearGradient id="b" x1="24.185" x2="168.712" y1="143.314" y2="143.314" gradientUnits="userSpaceOnUse" xlink:href="#a"/>
    </defs>
    <path stroke="#000" stroke-width="2" d="M5 5.8h337v337.6H5z"/>
    <path stroke="#000" stroke-width="2" d="M282.7 40.6c0-8.4 7-15.2 15.6-15.2 4.1 0 8 1.6 11 4.4a15 15 0 0 1 4.6 10.8c0 8.3-7 15.1-15.6 15.1s-15.6-6.8-15.6-15.1z"/>
    <path fill="#000" stroke="#000" d="M63.406 299.652v-22.725h219.576v45.518H63.406v-22.793z"/>
    <text style="line-height:125%;text-align:start" x="120.241" y="308.32" fill="#000" stroke="#000" font-family="'Keep on Truckin'FW';-inkscape-font-specification:'Keep on Truckin'FW, Normal'" font-size="40" font-weight="400">
        <tspan style="line-height:125%;-inkscape-font-specification:sans-serif;text-align:start" x="120.241" y="308.32" fill="#fff" stroke="none" font-family="sans-serif" font-size="30">&lt;JOB&gt;</tspan>
    </text>
    <path fill="#fff" stroke="#000" stroke-width="1.054" d="M16.964 222.576v-39.714h312.29v79.546H16.963v-39.832z"/>
    <text x="33.284" y="272.739" fill="#000" stroke="#000" font-size="45.603" font-weight="400" transform="scale(1.14195 .8757)" style="line-height:125%;text-align:start">
        <tspan x="33.284" y="272.739" font-family="sans-serif" font-size="51.304" style="line-height:125%;-inkscape-font-specification:sans-serif;text-align:start">&lt;PLATE&gt;</tspan>
    </text>
    <path fill="#fff" stroke="#000" stroke-width=".29" d="M18 299.206v-22.518h41.712v45.104H18v-22.586z"/>
    <path fill="#fff" stroke="#000" stroke-width=".29" d="M288 299.206v-22.518h41.712v45.104H288v-22.586z"/>
    <text style="line-height:125%" x="21.381" y="313.28" fill="#000" stroke="#000" font-family="sans-serif" font-size="40" font-weight="400" letter-spacing="0" word-spacing="0">
        <tspan x="21.381" y="313.28">&lt;</tspan>
    </text>
    <text x="292.61" y="311.771" fill="#000" stroke="#000" font-family="sans-serif" font-size="40" font-weight="400" letter-spacing="0" word-spacing="0" style="line-height:125%">
        <tspan x="292.61" y="311.771">&gt;</tspan>
    </text>
    <path fill="#fff" stroke="#000" stroke-width="1.08" d="M15.934 94.268V16.046h166.288v156.678H15.934V94.268z"/>
    <circle cx="213.323" cy="156.146" r="14.809" fill="#fff" stroke="#000" stroke-miterlimit="10" stroke-width="1.578"/>
    <circle cx="214.366" cy="116.524" r="14.809" fill="#fff" stroke="#000" stroke-miterlimit="10" stroke-width="1.578"/>
    <circle cx="214.366" cy="75.86" r="14.809" fill="#fff" stroke="#000" stroke-miterlimit="10" stroke-width="1.578"/>
    <circle cx="214.366" cy="33.11" r="14.809" fill="#fff" stroke="#000" stroke-miterlimit="10" stroke-width="1.578"/>
    <path fill="#fff" stroke="#000" stroke-width=".552" d="M261.743 118.812V67.916h66.719V169.86h-66.719v-51.048z"/>
    <text style="line-height:125%;text-align:start" x="313.353" y="113.397" fill="#000" stroke="#000" font-size="59.405" font-weight="400" transform="scale(.87664 1.14072)">
        <tspan style="line-height:125%;-inkscape-font-specification:sans-serif;text-align:start" x="313.353" y="113.397" font-family="sans-serif" font-size="24.425">FIX!</tspan>
    </text>
</svg>
